X:1
T:O sacrum convivium
T:J. Grimm
T:O sacrum convivium
T:(Antiphona)
C:J. Grimm
%%score { ( 1 2 ) | ( 3 4 ) }
L:1/8
Q:1/4=120
M:4/4
K:F
V:1 treble nm="P1"
V:2 treble 
V:3 bass 
V:4 bass 
V:1
!mf!"^Allegro moderato" c2 | c4 A2 c2 | f3 c c4 | c2 c2 d2 c2 | c3 B A2 c2 | c3 c A2 c2 | f3 f e4 | %7
w: O|sa- crum con-|vi- vi- um,|in quo Chris- tus|su- mi- tur; re-|co- li- tur me-|mo- ri- a|
 e2 e2 f2 e2 | d4 c4 |:!p! G2 B2 A2 c2 |!<(! (Bcd)B!<)! G4 | G2 B2 A2 c2 | (Bcd)B G4 | %13
w: pas- si- o- nis|e- jus.|Mens im- ple- tur|gra- * * ti- a|et fu- tu- rae|glo- * * ri- ae|
!mf! A2 A2 B2 c2 | d2 d2!f! f2 (ed) | c2 A2 d2 (cB) | (A4 G4) | !fermata!F6 :| %18
w: no- bis pig- nus|da- tur. Al- le- *|lu- ja, al- le- *|lu- *|ja.|
V:2
 F2 | F4 F2 F2 | A3 A F4 | F2 F2 F2 F2 | F3 E F2 F2 | F2 F2 F2 G2 | A2 G2 G4 | G2 G2 A2 G2 | %8
 F4 E4 |: E2 G2 F2 A2 | (GAB)G E4 | E2 G2 F2 A2 | (GAB)G E4 | F2 F2 G2 F2 | F2 F2 F2 F2 | %15
 F2 F2 F2 (^FG) | (=F4 E4) | C6 :| %18
V:3
 A,2 | A,4 C2 A,2 | C3 A, A,4 | A,2 A,2 B,2 A,2 | A,3 G, C2 A,2 | A,2 A,2 A,=B, C_B, | %6
 A,2 =B,2 C4 | C2 =B,2 A,2 B,2 | =B,2 A,B, G,4 |: E,2 E,2 F,2 F,2 | E,F,G,D C4 | E,2 E,2 F,2 F,2 | %12
 E,F,G,D C4 | C2 C2 C2 A,2 | B,2 B,2 D2 CB, | A,2 C2 B,2 A,D | C4 B,4 | A,6 :| %18
V:4
 F,2 | F,4 F,2 F,2 | F,3 F, F,4 | F,2 F,2 F,2 F,2 | C,3 C, C,2 F,2 | F,2 C,2 D,2 E,2 | %6
 F,D, G,,2 C,D,E,^F, | G,2 G,2 G,2 G,2 | G,,4 C,4 |: C,2 C,2 C,2 C,2 | C,2 C,2 C,4 | %11
 C,2 C,2 C,2 C,2 | C,2 C,2 C,4 | F,2 F,2 E,2 _E,2 | D,2 B,,2 B,,2 B,,2 | C,2 C,2 C,2 D,2 | C,8 | %17
 !fermata!F,6 :| %18

